src/actions/16/zoom-in.svg

<svg version="1.1" viewBox="0 0 16 16" xmlns="http://www.w3.org/2000/svg">
 <defs>
  <style id="current-color-scheme" type="text/css">.ColorScheme-Text {
        color:#363636;
      }</style>
 </defs>
 <path class="ColorScheme-Text" d="m7 1v1h2v-1zm1 3v1h2.293l-3.293 3.293 0.70703 0.70703 3.293-3.293v2.293h1v-4h-4zm-7 3v2h1v-2zm13 0v2h1v-2zm-12 4c-0.554 0-1 0.446-1 1v2c0 0.554 0.446 1 1 1h2c0.554 0 1-0.446 1-1v-2c0-0.554-0.446-1-1-1zm0 1h2v2h-2zm5 2v1h2v-1z" fill="currentColor"/>
 <path class="ColorScheme-Text" d="m3 1c-1.108 0-2 0.892-2 2v1h1v-1c0-0.554 0.446-1 1-1h1v-1zm9 0v1h1c0.554 0 1 0.446 1 1v1h1v-1c0-1.108-0.89638-2.0984-2-2zm2 11v1c0 0.554-0.446 1-1 1h-1v1h1c1.108 0 2-0.892 2-2v-1z" fill="currentColor"/>
</svg>

<svg xmlns="http://www.w3.org/2000/svg" viewBox="0 0 16 16">
    <defs>
        <style id="current-color-scheme" type="text/css">
            .ColorScheme-Text{color:#050505;opacity:.7}
        </style>
    </defs>
    <path fill="currentColor" d="M7 1v1h2V1zm1 3v1h2.293L7 8.293 7.707 9 11 5.707V8h1V4H8zM1 7v2h1V7zm13 0v2h1V7zM2 11c-.554 0-1 .446-1 1v2c0 .554.446 1 1 1h2c.554 0 1-.446 1-1v-2c0-.554-.446-1-1-1zm0 1h2v2H2zm5 2v1h2v-1zM3 1c-1.108 0-2 .892-2 2v1h1V3c0-.554.446-1 1-1h1V1zm9 0v1h1c.554 0 1 .446 1 1v1h1V3c0-1.108-.896-2.098-2-2zm2 11v1c0 .554-.446 1-1 1h-1v1h1c1.108 0 2-.892 2-2v-1z" class="ColorScheme-Text"/>
</svg>
